assets/Oyster/Flat/oyster_flat.svg

<svg width="32" height="32" viewBox="0 0 32 32" fill="none" xmlns="http://www.w3.org/2000/svg">
<path d="M8.38321 28.6878C5.61147 28.6677 3.33003 26.3939 3.31002 23.6191C3.30001 22.7276 3.52015 21.8561 3.95042 21.0848L4.37068 20.3336L4.36068 20.3235L5.63148 16.1765C6.15181 15.2249 6.16181 14.0629 5.65149 13.0812V13.0712C5.25124 12.2899 5.52141 11.2982 6.25187 10.8174L6.27188 10.8073C7.36257 10.1162 8.05301 8.93416 8.10304 7.64196V7.62193C8.14306 6.74043 8.87352 5.50428 9.74407 5.45419H9.76408C11.0649 5.40411 12.2456 4.71293 12.9361 3.62107L12.9461 3.60104C13.2663 3.1102 13.8266 2.80969 14.417 2.80969C14.6872 2.80969 14.9574 2.8698 15.1975 3.00002L15.2175 3.01003C15.7779 3.31054 16.4183 3.4608 17.0487 3.4608C17.6791 3.4608 18.3195 3.30053 18.8798 3.01003L18.8998 3.00002C19.14 2.87981 19.4002 2.80969 19.6803 2.80969C20.2707 2.80969 20.831 3.1102 21.1513 3.60104L21.1613 3.62107C21.8517 4.71293 23.0324 5.39409 24.3333 5.45419H24.3533C25.2338 5.49426 25.9543 6.2255 25.9943 7.09699V7.11702C26.0443 8.41924 27.2305 10.1162 28.3312 10.8073L28.3512 10.8174C29.0917 11.2982 29.3518 12.2799 28.9516 13.0712L28.9416 13.0912C28.3412 14.2332 28.3412 15.6055 28.9416 16.7475L28.9516 16.7675C29.3518 17.5488 29.0917 18.5405 28.3512 19.0213L28.3312 19.0313C27.2305 19.7225 26.55 20.9045 26.5 22.2067V22.2268C26.46 23.1083 25.7295 23.8295 24.859 23.8796H24.839C23.5482 23.9297 21.8517 24.6108 21.1613 25.7127L21.1513 25.7327C20.831 26.2236 20.2707 26.5241 19.6803 26.5241C19.4102 26.5241 19.14 26.464 18.8998 26.3338L18.8898 26.3237C18.4195 26.0733 17.8892 25.9431 17.3589 25.9431C16.8185 25.9431 16.2782 26.0833 15.7979 26.3438L11.165 27.9064L11.1349 27.9265C10.3244 28.4273 9.39385 28.6978 8.44325 28.6978L8.38321 28.6878Z" fill="#D3D3D3"/>
<path d="M29.6174 16.1364C29.2171 15.3851 29.2171 14.4836 29.6174 13.7323C29.6274 13.7223 29.6274 13.7123 29.6374 13.7023C30.3478 12.2999 29.8876 10.5569 28.5667 9.70548C28.5567 9.69546 28.5467 9.69546 28.5367 9.68544C27.8163 9.23468 27.366 8.45335 27.336 7.6019C27.336 7.59188 27.336 7.57185 27.336 7.56183C27.2559 5.98916 25.9851 4.71699 24.4141 4.63685C24.4041 4.63685 24.3941 4.63685 24.3841 4.63685C23.5336 4.59679 22.7531 4.15604 22.2928 3.43481C22.2828 3.42479 22.2828 3.41478 22.2728 3.40476C21.4222 2.08251 19.6811 1.62173 18.2803 2.33294C18.2702 2.34295 18.2602 2.34295 18.2502 2.35297C17.4998 2.75365 16.5992 2.75365 15.8487 2.35297C15.8387 2.34295 15.8287 2.34295 15.8187 2.33294C14.4178 1.62173 12.6767 2.08251 11.8262 3.40476C11.8162 3.41478 11.8162 3.42479 11.8062 3.43481C11.3559 4.15604 10.5654 4.6068 9.71486 4.63685C9.70485 4.63685 9.69485 4.63685 9.68484 4.63685C9.6248 4.63685 9.56477 4.64687 9.51473 4.64687C9.05444 4.69696 8.62417 4.84721 8.24393 5.08762C8.24393 5.08762 8.24393 5.08762 8.23392 5.08762C8.20391 5.10766 8.16388 5.12769 8.13386 5.14772C8.12386 5.14772 8.12386 5.15774 8.11385 5.15774C8.08383 5.17777 8.05381 5.19781 8.02379 5.21784C8.01379 5.22786 8.00378 5.22786 8.00378 5.23788C7.97376 5.25791 7.95375 5.27794 7.92373 5.29798C7.91373 5.308 7.90372 5.308 7.89371 5.31801C7.8737 5.33805 7.84368 5.35808 7.82367 5.37811C7.81366 5.38813 7.80366 5.39815 7.79365 5.40817C7.77364 5.4282 7.74362 5.44823 7.72361 5.46827C7.7136 5.47829 7.70359 5.4883 7.69359 5.49832C7.67357 5.51835 7.65356 5.53839 7.63355 5.55842C7.62354 5.56844 7.61354 5.57846 7.60353 5.59849C7.58352 5.61853 7.5635 5.63856 7.54349 5.65859C7.53348 5.66861 7.52348 5.68864 7.51347 5.69866C7.49346 5.71869 7.47345 5.73873 7.46344 5.75876C7.45343 5.76878 7.44343 5.78881 7.43342 5.79883C7.41341 5.81886 7.4034 5.8389 7.38339 5.85893C7.37338 5.87897 7.36338 5.88898 7.35337 5.90902C7.33336 5.92905 7.32335 5.94909 7.31335 5.96912C7.30334 5.98915 7.29333 5.99917 7.28333 6.01921C7.27332 6.03924 7.25331 6.05927 7.2433 6.07931C7.2333 6.09934 7.22329 6.11938 7.21328 6.12939C7.20328 6.14943 7.19327 6.16946 7.17326 6.18949C7.16325 6.20953 7.15324 6.22956 7.14324 6.2496C7.13323 6.26963 7.12323 6.28967 7.11322 6.3097C7.10321 6.32973 7.09321 6.34977 7.0832 6.3698C7.0732 6.38984 7.06319 6.40987 7.05318 6.4299C7.04317 6.44994 7.03317 6.46997 7.02316 6.49001C7.01316 6.51004 7.00315 6.53007 6.99315 6.55011C6.98314 6.57014 6.97313 6.59018 6.97313 6.62023C6.96313 6.64026 6.95312 6.6603 6.95312 6.68033C6.94311 6.70037 6.94311 6.73042 6.93311 6.75045C6.9231 6.77048 6.9231 6.79052 6.91309 6.81055C6.90309 6.83059 6.90309 6.86064 6.89308 6.88067C6.88307 6.90071 6.88307 6.92074 6.87307 6.94077C6.86306 6.97082 6.86306 6.99086 6.85306 7.02091C6.85306 7.04095 6.84305 7.06098 6.84305 7.08101C6.83304 7.11106 6.83305 7.1311 6.83305 7.16115C6.83305 7.18118 6.82304 7.20122 6.82304 7.22125C6.82304 7.2513 6.81303 7.28135 6.81303 7.31141C6.81303 7.33144 6.81303 7.34146 6.80302 7.36149C6.80302 7.41158 6.79302 7.46166 6.79302 7.50173C6.79302 7.51174 6.79302 7.53178 6.79302 7.5418C6.763 8.39325 6.31272 9.17457 5.59226 9.62534C5.58226 9.63536 5.57225 9.63536 5.56224 9.64537C4.24141 10.4968 3.78112 12.2398 4.49157 13.6422V13.6522C4.79176 14.2332 4.72171 14.8242 4.48156 15.4853L2.81051 20.3836C2.3102 21.6859 2 22.928 2 23.5891C2 27.0951 4.90183 30 8.41404 30C9.35463 30 10.7455 29.6494 11.9162 29.1385L16.4791 27.4957C17.1595 27.2453 17.7299 27.1852 18.3003 27.4857C18.3103 27.4857 18.3103 27.4957 18.3203 27.4957C19.7212 28.207 21.4623 27.7462 22.3128 26.4239C22.3228 26.4139 22.3228 26.4039 22.3328 26.3939C22.7831 25.6726 23.5636 25.2219 24.4141 25.1918C24.4241 25.1918 24.4441 25.1918 24.4541 25.1918C26.0251 25.1117 27.2959 23.8395 27.376 22.2668C27.376 22.2568 27.376 22.2368 27.376 22.2268C27.376 22.1767 27.386 22.1366 27.386 22.0865C27.386 22.0665 27.386 22.0565 27.386 22.0365C27.386 22.0064 27.396 21.9764 27.396 21.9363C27.396 21.9163 27.396 21.9062 27.406 21.8862C27.416 21.8461 27.416 21.8061 27.426 21.766C27.436 21.7359 27.436 21.7159 27.446 21.6859C27.446 21.6758 27.456 21.6558 27.456 21.6458C27.466 21.6157 27.476 21.5857 27.486 21.5556C27.5061 21.4855 27.5361 21.4154 27.5561 21.3453C27.7562 20.8544 28.1064 20.4237 28.5667 20.1232C28.5767 20.1132 28.5867 20.1132 28.5967 20.1032C29.9176 19.2517 30.3304 17.5424 29.62 16.14L29.6174 16.1364ZM28.4266 16.7575L28.4366 16.7775C28.8369 17.5588 28.5767 18.5505 27.8363 19.0313L27.8163 19.0414C27.2059 19.432 26.7156 19.9729 26.4054 20.604C26.3954 20.614 26.3954 20.6241 26.3854 20.6341C26.3753 20.6541 26.3653 20.6842 26.3553 20.7042C25.9951 21.3853 25.2747 21.3954 25.2747 21.3954L10.5854 20.3135L9.50472 7.05096C9.50472 6.07931 10.4353 5.88898 10.4353 5.88898C11.466 5.66861 12.3765 5.04755 12.9369 4.14602L12.9469 4.12598C13.2671 3.63515 13.8274 3.33464 14.4178 3.33464C14.688 3.33464 14.9582 3.39474 15.1983 3.52496L15.2183 3.53498C15.7787 3.83549 16.4191 3.98575 17.0495 3.98575C17.6799 3.98575 18.3203 3.82547 18.8806 3.53498L18.9006 3.52496C19.1408 3.40476 19.401 3.33464 19.6811 3.33464C20.2715 3.33464 20.8319 3.63515 21.1521 4.12598L21.1621 4.14602C21.8525 5.23788 23.0332 5.91904 24.3341 5.97914H24.3541C25.2346 6.01921 25.9551 6.75045 25.9951 7.62193V7.64197C26.0451 8.94418 26.7256 10.1262 27.8263 10.8174L27.8463 10.8274C28.5867 11.3082 28.8469 12.2899 28.4467 13.0812L28.4366 13.1013C27.8263 14.2432 27.8263 15.6155 28.4266 16.7575Z" fill="#6D4534"/>
<path d="M28.4687 13.1172L28.4787 13.0972C28.859 12.3559 28.6421 11.411 28.0117 10.9102L17.6498 14.4536L21.1445 4.0625C20.8243 3.5917 20.2561 3.29688 19.6758 3.29688C19.4056 3.29688 19.1476 3.36564 18.9074 3.49586L18.8874 3.50588C18.3271 3.80639 17.6967 3.95664 17.0563 3.95664C16.706 3.95664 16.3558 3.90656 16.0156 3.81641L13.4172 17.048L14.2877 17.2784L14.708 18.8311L28.1765 16.1165C27.8463 15.1248 27.9784 14.0588 28.4687 13.1172Z" fill="#9B9B9B"/>
<path d="M22.713 16.0061C22.713 12.2798 19.6911 9.25464 15.9688 9.25464C13.6473 9.25464 11.6061 10.4266 10.3953 12.2097L4.98188 20.9846C4.44154 21.7058 4.13135 22.5973 4.13135 23.559C4.13135 25.943 6.06256 27.8763 8.44406 27.8763C9.31461 27.8763 10.1251 27.6159 10.8055 27.1651L10.8256 27.1551C10.8756 27.125 10.9256 27.085 10.9757 27.0449L19.2108 21.9162C21.2922 20.7843 22.713 18.5605 22.713 16.0061Z" fill="#FFCE7C"/>
<path d="M12.5 20C14.9853 20 17 17.9853 17 15.5C17 13.0147 14.9853 11 12.5 11C10.0147 11 8 13.0147 8 15.5C8 17.9853 10.0147 20 12.5 20Z" fill="#F4F4F4"/>
</svg>

<svg xmlns="http://www.w3.org/2000/svg" width="32" height="32" fill="none"><path fill="#D3D3D3" d="M8.383 28.688c-2.772-.02-5.053-2.294-5.073-5.069-.01-.891.21-1.763.64-2.534l.42-.751-.01-.01 1.271-4.148c.52-.951.53-2.113.02-3.095v-.01c-.4-.781-.13-1.773.6-2.254l.02-.01a3.934 3.934 0 0 0 1.832-3.165v-.02c.04-.882.77-2.118 1.641-2.168h.02a3.932 3.932 0 0 0 3.172-1.833l.01-.02c.32-.49.88-.791 1.471-.791.27 0 .54.06.78.19l.02.01c.56.3 1.201.45 1.832.45.63 0 1.27-.16 1.83-.45L18.9 3c.241-.12.501-.19.781-.19.59 0 1.151.3 1.471.791l.01.02a3.957 3.957 0 0 0 3.172 1.833h.02c.88.04 1.601.772 1.641 1.643v.02c.05 1.302 1.236 3 2.337 3.69l.02.01c.74.481 1 1.463.6 2.254l-.01.02a3.936 3.936 0 0 0 0 3.656l.01.02c.4.782.14 1.774-.6 2.254l-.02.01a3.913 3.913 0 0 0-1.831 3.176v.02c-.04.881-.77 1.602-1.641 1.653h-.02c-1.29.05-2.987.73-3.678 1.833l-.01.02c-.32.49-.88.791-1.47.791-.27 0-.541-.06-.781-.19l-.01-.01c-.47-.25-1-.38-1.531-.38-.54 0-1.08.14-1.561.4l-4.633 1.562-.03.02c-.81.501-1.741.772-2.692.772l-.06-.01Z"/><path fill="#6D4534" d="M29.617 16.136c-.4-.75-.4-1.652 0-2.404.01-.01.01-.02.02-.03.71-1.402.25-3.145-1.07-3.997-.01-.01-.02-.01-.03-.02a2.564 2.564 0 0 1-1.201-2.083v-.04a3.096 3.096 0 0 0-2.922-2.925h-.03a2.618 2.618 0 0 1-2.091-1.202c-.01-.01-.01-.02-.02-.03-.85-1.322-2.592-1.783-3.993-1.072-.01.01-.02.01-.03.02-.75.4-1.65.4-2.401 0-.01-.01-.02-.01-.03-.02-1.401-.711-3.142-.25-3.993 1.072-.01.01-.01.02-.02.03a2.578 2.578 0 0 1-2.091 1.202h-.03c-.06 0-.12.01-.17.01-.46.05-.89.2-1.271.44h-.01c-.03.02-.07.04-.1.06-.01 0-.01.01-.02.01l-.09.06c-.01.01-.02.01-.02.02-.03.02-.05.04-.08.061-.01.01-.02.01-.03.02-.02.02-.05.04-.07.06l-.03.03c-.02.02-.05.04-.07.06l-.03.03-.06.06c-.01.01-.02.02-.03.04l-.06.06c-.01.01-.02.03-.03.04-.02.02-.04.04-.05.06-.01.01-.02.03-.03.04-.02.02-.03.04-.05.06-.01.021-.02.031-.03.051a.21.21 0 0 0-.04.06c-.01.02-.02.03-.03.05-.01.02-.03.04-.04.06-.01.02-.02.04-.03.05a.21.21 0 0 1-.04.06l-.03.06-.03.06-.03.06-.03.06-.03.061-.03.06c-.01.02-.02.04-.02.07-.01.02-.02.04-.02.06-.01.02-.01.05-.02.07-.01.02-.01.04-.02.06-.01.02-.01.05-.02.07-.01.02-.01.04-.02.06-.01.03-.01.05-.02.08 0 .021-.011.041-.011.061-.01.03-.01.05-.01.08 0 .02-.01.04-.01.06 0 .03-.01.06-.01.09 0 .02 0 .03-.01.05 0 .05-.01.1-.01.14v.04a2.564 2.564 0 0 1-1.2 2.084c-.01.01-.02.01-.03.02-1.322.852-1.782 2.595-1.071 3.997v.01c.3.581.23 1.172-.01 1.833L2.81 20.384C2.31 21.686 2 22.928 2 23.589 2 27.095 4.902 30 8.414 30c.94 0 2.332-.35 3.502-.861l4.563-1.643c.68-.25 1.25-.31 1.821-.01.01 0 .01.01.02.01 1.401.711 3.142.25 3.993-1.072.01-.01.01-.02.02-.03a2.56 2.56 0 0 1 2.081-1.202h.04a3.096 3.096 0 0 0 2.922-2.925v-.04c0-.05.01-.09.01-.14v-.05c0-.03.01-.06.01-.1 0-.02 0-.03.01-.05.01-.04.01-.08.02-.121.01-.03.01-.05.02-.08 0-.01.01-.03.01-.04l.03-.09c.02-.07.05-.14.07-.21.2-.492.55-.922 1.01-1.223.01-.01.02-.01.03-.02 1.322-.851 1.734-2.56 1.024-3.963l-.003-.004Zm-1.19.622.01.02c.4.78.14 1.773-.6 2.253l-.02.01c-.611.391-1.101.932-1.412 1.563-.01.01-.01.02-.02.03-.01.02-.02.05-.03.07-.36.681-1.08.691-1.08.691l-14.69-1.081L9.505 7.05c0-.972.93-1.162.93-1.162a3.899 3.899 0 0 0 2.502-1.743l.01-.02c.32-.49.88-.791 1.47-.791.271 0 .541.06.781.19l.02.01c.56.3 1.201.45 1.831.45.63 0 1.271-.16 1.832-.45l.02-.01c.24-.12.5-.19.78-.19.59 0 1.15.3 1.471.791l.01.02a3.957 3.957 0 0 0 3.172 1.833h.02c.88.04 1.601.771 1.641 1.643v.02a3.913 3.913 0 0 0 1.831 3.175l.02.01c.74.481 1 1.463.6 2.254l-.01.02a3.908 3.908 0 0 0-.01 3.656Z"/><path fill="#9B9B9B" d="m28.469 13.117.01-.02a1.8 1.8 0 0 0-.467-2.187L17.65 14.454l3.495-10.392a1.801 1.801 0 0 0-1.47-.765c-.27 0-.527.069-.768.199l-.02.01c-.56.3-1.19.45-1.83.45-.351 0-.701-.05-1.041-.14l-2.599 13.232.87.23.421 1.553 13.469-2.715c-.33-.991-.199-2.057.292-2.999Z"/><path fill="#FFCE7C" d="M22.713 16.006c0-3.726-3.022-6.751-6.744-6.751a6.721 6.721 0 0 0-5.574 2.955l-5.413 8.775a4.273 4.273 0 0 0-.85 2.574 4.315 4.315 0 0 0 4.312 4.317c.87 0 1.681-.26 2.361-.71l.02-.01c.05-.031.1-.071.15-.111l8.236-5.129a6.723 6.723 0 0 0 3.502-5.91Z"/><path fill="#F4F4F4" d="M12.5 20a4.5 4.5 0 1 0 0-9 4.5 4.5 0 0 0 0 9Z"/></svg>
